images/50571408.svg

<?xml version="1.0" encoding="UTF-8"?>
<svg xmlns="http://www.w3.org/2000/svg" xmlns:xlink="http://www.w3.org/1999/xlink" width="300pt" height="300pt" viewBox="0 0 300 300" version="1.1">
<defs>
<g>
<symbol overflow="visible" id="glyph0-0">
<path style="stroke:none;" d="M 0.453125 1.59375 L 0.453125 -6.34375 L 4.953125 -6.34375 L 4.953125 1.59375 Z M 0.953125 1.09375 L 4.453125 1.09375 L 4.453125 -5.84375 L 0.953125 -5.84375 Z M 0.953125 1.09375 "/>
</symbol>
<symbol overflow="visible" id="glyph0-1">
<path style="stroke:none;" d="M 3.546875 -5.953125 C 2.898438 -5.953125 2.382812 -5.710938 2 -5.234375 C 1.625 -4.753906 1.4375 -4.101562 1.4375 -3.28125 C 1.4375 -2.445312 1.625 -1.789062 2 -1.3125 C 2.382812 -0.832031 2.898438 -0.59375 3.546875 -0.59375 C 4.191406 -0.59375 4.703125 -0.832031 5.078125 -1.3125 C 5.453125 -1.789062 5.640625 -2.445312 5.640625 -3.28125 C 5.640625 -4.101562 5.453125 -4.753906 5.078125 -5.234375 C 4.703125 -5.710938 4.191406 -5.953125 3.546875 -5.953125 Z M 3.546875 -6.6875 C 4.460938 -6.6875 5.195312 -6.375 5.75 -5.75 C 6.300781 -5.132812 6.578125 -4.3125 6.578125 -3.28125 C 6.578125 -2.238281 6.300781 -1.410156 5.75 -0.796875 C 5.195312 -0.179688 4.460938 0.125 3.546875 0.125 C 2.617188 0.125 1.878906 -0.179688 1.328125 -0.796875 C 0.773438 -1.410156 0.5 -2.238281 0.5 -3.28125 C 0.5 -4.3125 0.773438 -5.132812 1.328125 -5.75 C 1.878906 -6.375 2.617188 -6.6875 3.546875 -6.6875 Z M 3.546875 -6.6875 "/>
</symbol>
<symbol overflow="visible" id="glyph0-2">
<path style="stroke:none;" d="M 0.890625 -6.5625 L 2.078125 -6.5625 L 4.984375 -1.078125 L 4.984375 -6.5625 L 5.84375 -6.5625 L 5.84375 0 L 4.65625 0 L 1.75 -5.484375 L 1.75 0 L 0.890625 0 Z M 0.890625 -6.5625 "/>
</symbol>
<symbol overflow="visible" id="glyph0-3">
<path style="stroke:none;" d="M 0.890625 -6.5625 L 1.765625 -6.5625 L 1.765625 -3.875 L 5 -3.875 L 5 -6.5625 L 5.890625 -6.5625 L 5.890625 0 L 5 0 L 5 -3.125 L 1.765625 -3.125 L 1.765625 0 L 0.890625 0 Z M 0.890625 -6.5625 "/>
</symbol>
</g>
</defs>
<g id="surface17873">
<rect x="0" y="0" width="300" height="300" style="fill:rgb(100%,100%,100%);fill-opacity:1;stroke:none;"/>
<path style="fill:none;stroke-width:1.2;stroke-linecap:butt;stroke-linejoin:miter;stroke:rgb(100%,0%,0%);stroke-opacity:1;stroke-miterlimit:10;" d="M 141.472656 170.199219 L 131.214844 163.964844 "/>
<path style="fill:none;stroke-width:1.2;stroke-linecap:butt;stroke-linejoin:miter;stroke:rgb(0%,0%,0%);stroke-opacity:1;stroke-miterlimit:10;" d="M 131.214844 163.964844 L 120.953125 157.730469 "/>
<path style="fill:none;stroke-width:1.2;stroke-linecap:butt;stroke-linejoin:miter;stroke:rgb(100%,0%,0%);stroke-opacity:1;stroke-miterlimit:10;" d="M 138.539062 175.027344 L 128.28125 168.792969 "/>
<path style="fill:none;stroke-width:1.2;stroke-linecap:butt;stroke-linejoin:miter;stroke:rgb(0%,0%,0%);stroke-opacity:1;stroke-miterlimit:10;" d="M 128.28125 168.792969 L 118.019531 162.558594 "/>
<path style=" stroke:none;fill-rule:nonzero;fill:rgb(100%,100%,100%);fill-opacity:1;" d="M 136.007812 167.113281 L 144.007812 167.113281 L 144.007812 178.113281 L 136.007812 178.113281 Z M 136.007812 167.113281 "/>
<g style="fill:rgb(100%,0%,0%);fill-opacity:1;">
  <use xlink:href="#glyph0-1" x="136.007812" y="175.776367"/>
</g>
<path style="fill:none;stroke-width:1.2;stroke-linecap:butt;stroke-linejoin:miter;stroke:rgb(0%,0%,0%);stroke-opacity:1;stroke-miterlimit:10;" d="M 119.484375 160.144531 L 119.753906 148.140625 "/>
<path style="fill:none;stroke-width:1.2;stroke-linecap:butt;stroke-linejoin:miter;stroke:rgb(0%,0%,100%);stroke-opacity:1;stroke-miterlimit:10;" d="M 119.753906 148.140625 L 120.023438 136.136719 "/>
<path style="fill:none;stroke-width:1.2;stroke-linecap:butt;stroke-linejoin:miter;stroke:rgb(0%,0%,0%);stroke-opacity:1;stroke-miterlimit:10;" d="M 119.484375 160.144531 L 98.425781 171.683594 "/>
<path style="fill:none;stroke-width:1.2;stroke-linecap:butt;stroke-linejoin:miter;stroke:rgb(0%,0%,100%);stroke-opacity:1;stroke-miterlimit:10;" d="M 120.023438 136.136719 L 109.761719 129.902344 "/>
<path style="fill:none;stroke-width:1.2;stroke-linecap:butt;stroke-linejoin:miter;stroke:rgb(0%,0%,0%);stroke-opacity:1;stroke-miterlimit:10;" d="M 109.761719 129.902344 L 99.5 123.667969 "/>
<path style="fill:none;stroke-width:1.2;stroke-linecap:butt;stroke-linejoin:miter;stroke:rgb(0%,0%,100%);stroke-opacity:1;stroke-miterlimit:10;" d="M 120.023438 136.136719 L 130.550781 130.367188 "/>
<path style="fill:none;stroke-width:1.2;stroke-linecap:butt;stroke-linejoin:miter;stroke:rgb(0%,0%,0%);stroke-opacity:1;stroke-miterlimit:10;" d="M 130.550781 130.367188 L 141.082031 124.597656 "/>
<path style=" stroke:none;fill-rule:nonzero;fill:rgb(100%,100%,100%);fill-opacity:1;" d="M 117.023438 130.636719 L 124.023438 130.636719 L 124.023438 141.636719 L 117.023438 141.636719 Z M 117.023438 130.636719 "/>
<g style="fill:rgb(0%,0%,100%);fill-opacity:1;">
  <use xlink:href="#glyph0-2" x="117.023438" y="139.299805"/>
</g>
<path style="fill:none;stroke-width:1.2;stroke-linecap:butt;stroke-linejoin:miter;stroke:rgb(0%,0%,0%);stroke-opacity:1;stroke-miterlimit:10;" d="M 99.5 123.667969 L 78.441406 135.207031 "/>
<path style="fill:none;stroke-width:1.2;stroke-linecap:butt;stroke-linejoin:miter;stroke:rgb(0%,0%,0%);stroke-opacity:1;stroke-miterlimit:10;" d="M 141.082031 124.597656 L 151.34375 130.832031 "/>
<path style="fill:none;stroke-width:1.2;stroke-linecap:butt;stroke-linejoin:miter;stroke:rgb(0%,0%,100%);stroke-opacity:1;stroke-miterlimit:10;" d="M 151.34375 130.832031 L 161.601562 137.066406 "/>
<path style="fill:none;stroke-width:1.2;stroke-linecap:butt;stroke-linejoin:miter;stroke:rgb(0%,0%,0%);stroke-opacity:1;stroke-miterlimit:10;" d="M 146.066406 121.015625 L 154.277344 126.003906 "/>
<path style="fill:none;stroke-width:1.2;stroke-linecap:butt;stroke-linejoin:miter;stroke:rgb(0%,0%,100%);stroke-opacity:1;stroke-miterlimit:10;" d="M 154.277344 126.003906 L 162.484375 130.992188 "/>
<path style="fill:none;stroke-width:1.2;stroke-linecap:butt;stroke-linejoin:miter;stroke:rgb(0%,0%,0%);stroke-opacity:1;stroke-miterlimit:10;" d="M 141.617188 100.59375 L 141.082031 124.597656 "/>
<path style="fill:none;stroke-width:1.2;stroke-linecap:butt;stroke-linejoin:miter;stroke:rgb(0%,0%,100%);stroke-opacity:1;stroke-miterlimit:10;" d="M 161.601562 137.066406 L 172.132812 131.296875 "/>
<path style="fill:none;stroke-width:1.2;stroke-linecap:butt;stroke-linejoin:miter;stroke:rgb(0%,0%,0%);stroke-opacity:1;stroke-miterlimit:10;" d="M 172.132812 131.296875 L 182.660156 125.527344 "/>
<path style=" stroke:none;fill-rule:nonzero;fill:rgb(100%,100%,100%);fill-opacity:1;" d="M 158.601562 131.566406 L 165.601562 131.566406 L 165.601562 142.566406 L 158.601562 142.566406 Z M 158.601562 131.566406 "/>
<g style="fill:rgb(0%,0%,100%);fill-opacity:1;">
  <use xlink:href="#glyph0-2" x="158.601562" y="140.229492"/>
</g>
<path style="fill:none;stroke-width:1.2;stroke-linecap:butt;stroke-linejoin:miter;stroke:rgb(0%,0%,0%);stroke-opacity:1;stroke-miterlimit:10;" d="M 182.660156 125.527344 L 182.929688 113.523438 "/>
<path style="fill:none;stroke-width:1.2;stroke-linecap:butt;stroke-linejoin:miter;stroke:rgb(0%,0%,100%);stroke-opacity:1;stroke-miterlimit:10;" d="M 182.929688 113.523438 L 183.199219 101.523438 "/>
<path style="fill:none;stroke-width:1.2;stroke-linecap:butt;stroke-linejoin:miter;stroke:rgb(0%,0%,0%);stroke-opacity:1;stroke-miterlimit:10;" d="M 177.066406 123 L 177.28125 113.398438 "/>
<path style="fill:none;stroke-width:1.2;stroke-linecap:butt;stroke-linejoin:miter;stroke:rgb(0%,0%,100%);stroke-opacity:1;stroke-miterlimit:10;" d="M 177.28125 113.398438 L 177.496094 103.796875 "/>
<path style="fill:none;stroke-width:1.2;stroke-linecap:butt;stroke-linejoin:miter;stroke:rgb(0%,0%,0%);stroke-opacity:1;stroke-miterlimit:10;" d="M 182.660156 125.527344 L 192.921875 131.761719 "/>
<path style="fill:none;stroke-width:1.2;stroke-linecap:butt;stroke-linejoin:miter;stroke:rgb(0%,0%,100%);stroke-opacity:1;stroke-miterlimit:10;" d="M 192.921875 131.761719 L 203.183594 137.996094 "/>
<path style="fill:none;stroke-width:1.2;stroke-linecap:butt;stroke-linejoin:miter;stroke:rgb(0%,0%,100%);stroke-opacity:1;stroke-miterlimit:10;" d="M 183.199219 101.523438 L 172.9375 95.289062 "/>
<path style="fill:none;stroke-width:1.2;stroke-linecap:butt;stroke-linejoin:miter;stroke:rgb(0%,0%,0%);stroke-opacity:1;stroke-miterlimit:10;" d="M 172.9375 95.289062 L 162.675781 89.054688 "/>
<path style=" stroke:none;fill-rule:nonzero;fill:rgb(100%,100%,100%);fill-opacity:1;" d="M 180.199219 96.023438 L 187.199219 96.023438 L 187.199219 107.023438 L 180.199219 107.023438 Z M 180.199219 96.023438 "/>
<g style="fill:rgb(0%,0%,100%);fill-opacity:1;">
  <use xlink:href="#glyph0-2" x="180.199219" y="104.686523"/>
</g>
<path style="fill:none;stroke-width:1.2;stroke-linecap:butt;stroke-linejoin:miter;stroke:rgb(0%,0%,0%);stroke-opacity:1;stroke-miterlimit:10;" d="M 162.675781 89.054688 L 141.617188 100.59375 "/>
<path style="fill:none;stroke-width:1.2;stroke-linecap:butt;stroke-linejoin:miter;stroke:rgb(0%,0%,0%);stroke-opacity:1;stroke-miterlimit:10;" d="M 163.285156 95.164062 L 146.4375 104.394531 "/>
<path style="fill:none;stroke-width:1;stroke-linecap:butt;stroke-linejoin:miter;stroke:rgb(0%,0%,0%);stroke-opacity:1;stroke-miterlimit:10;" d="M 202.648438 162.003906 L 202.648438 162.003906 M 203.234375 159.0625 L 202.191406 159.039062 M 203.820312 156.121094 L 201.738281 156.074219 M 204.410156 153.175781 L 201.28125 153.109375 M 204.996094 150.234375 L 200.828125 150.140625 M 205.582031 147.292969 L 200.371094 147.175781 M 206.171875 144.351562 L 199.914062 144.210938 M 206.757812 141.410156 L 199.460938 141.246094 M 207.34375 138.46875 L 199.003906 138.28125 M 207.421875 138.089844 L 198.949219 137.902344 "/>
<path style=" stroke:none;fill-rule:nonzero;fill:rgb(100%,100%,100%);fill-opacity:1;" d="M 196.183594 132.496094 L 210.183594 132.496094 L 210.183594 143.496094 L 196.183594 143.496094 Z M 196.183594 132.496094 "/>
<g style="fill:rgb(0%,0%,100%);fill-opacity:1;">
  <use xlink:href="#glyph0-2" x="196.183594" y="141.15918"/>
  <use xlink:href="#glyph0-3" x="203.161133" y="141.15918"/>
</g>
<path style="fill:none;stroke-width:1.2;stroke-linecap:butt;stroke-linejoin:miter;stroke:rgb(0%,0%,0%);stroke-opacity:1;stroke-miterlimit:10;" d="M 202.648438 162.003906 L 181.589844 173.542969 "/>
<path style="fill:none;stroke-width:1.2;stroke-linecap:butt;stroke-linejoin:miter;stroke:rgb(0%,0%,0%);stroke-opacity:1;stroke-miterlimit:10;" d="M 202.648438 162.003906 L 223.167969 174.472656 "/>
<path style="fill:none;stroke-width:1.2;stroke-linecap:butt;stroke-linejoin:miter;stroke:rgb(0%,0%,0%);stroke-opacity:1;stroke-miterlimit:10;" d="M 223.167969 174.472656 L 222.632812 198.476562 "/>
<path style="fill:none;stroke-width:1.2;stroke-linecap:butt;stroke-linejoin:miter;stroke:rgb(0%,0%,0%);stroke-opacity:1;stroke-miterlimit:10;" d="M 228.765625 177 L 228.335938 196.203125 "/>
<path style="fill:none;stroke-width:1.2;stroke-linecap:butt;stroke-linejoin:miter;stroke:rgb(0%,0%,0%);stroke-opacity:1;stroke-miterlimit:10;" d="M 244.226562 162.933594 L 223.167969 174.472656 "/>
<path style="fill:none;stroke-width:1.2;stroke-linecap:butt;stroke-linejoin:miter;stroke:rgb(0%,0%,0%);stroke-opacity:1;stroke-miterlimit:10;" d="M 222.632812 198.476562 L 243.15625 210.945312 "/>
<path style="fill:none;stroke-width:1.2;stroke-linecap:butt;stroke-linejoin:miter;stroke:rgb(0%,0%,0%);stroke-opacity:1;stroke-miterlimit:10;" d="M 243.15625 210.945312 L 264.214844 199.40625 "/>
<path style="fill:none;stroke-width:1.2;stroke-linecap:butt;stroke-linejoin:miter;stroke:rgb(0%,0%,0%);stroke-opacity:1;stroke-miterlimit:10;" d="M 242.546875 204.835938 L 259.390625 195.605469 "/>
<path style="fill:none;stroke-width:1.2;stroke-linecap:butt;stroke-linejoin:miter;stroke:rgb(0%,0%,0%);stroke-opacity:1;stroke-miterlimit:10;" d="M 264.214844 199.40625 L 264.75 175.402344 "/>
<path style="fill:none;stroke-width:1.2;stroke-linecap:butt;stroke-linejoin:miter;stroke:rgb(0%,0%,0%);stroke-opacity:1;stroke-miterlimit:10;" d="M 264.75 175.402344 L 244.226562 162.933594 "/>
<path style="fill:none;stroke-width:1.2;stroke-linecap:butt;stroke-linejoin:miter;stroke:rgb(0%,0%,0%);stroke-opacity:1;stroke-miterlimit:10;" d="M 259.765625 178.984375 L 243.347656 169.007812 "/>
<path style="fill:none;stroke-width:1.2;stroke-linecap:butt;stroke-linejoin:miter;stroke:rgb(0%,0%,0%);stroke-opacity:1;stroke-miterlimit:10;" d="M 98.425781 171.683594 L 77.90625 159.214844 "/>
<path style="fill:none;stroke-width:1.2;stroke-linecap:butt;stroke-linejoin:miter;stroke:rgb(0%,0%,0%);stroke-opacity:1;stroke-miterlimit:10;" d="M 93.441406 175.265625 L 77.023438 165.289062 "/>
<path style="fill:none;stroke-width:1.2;stroke-linecap:butt;stroke-linejoin:miter;stroke:rgb(0%,0%,0%);stroke-opacity:1;stroke-miterlimit:10;" d="M 97.890625 195.6875 L 98.425781 171.683594 "/>
<path style="fill:none;stroke-width:1.2;stroke-linecap:butt;stroke-linejoin:miter;stroke:rgb(0%,0%,0%);stroke-opacity:1;stroke-miterlimit:10;" d="M 77.90625 159.214844 L 56.84375 170.753906 "/>
<path style="fill:none;stroke-width:1.2;stroke-linecap:butt;stroke-linejoin:miter;stroke:rgb(0%,0%,0%);stroke-opacity:1;stroke-miterlimit:10;" d="M 56.84375 170.753906 L 36.324219 158.285156 "/>
<path style="fill:none;stroke-width:1.2;stroke-linecap:butt;stroke-linejoin:miter;stroke:rgb(0%,0%,0%);stroke-opacity:1;stroke-miterlimit:10;" d="M 56.84375 170.753906 L 56.308594 194.757812 "/>
<path style="fill:none;stroke-width:1.2;stroke-linecap:butt;stroke-linejoin:miter;stroke:rgb(0%,0%,0%);stroke-opacity:1;stroke-miterlimit:10;" d="M 62.441406 173.28125 L 62.011719 192.484375 "/>
<path style="fill:none;stroke-width:1.2;stroke-linecap:butt;stroke-linejoin:miter;stroke:rgb(0%,0%,0%);stroke-opacity:1;stroke-miterlimit:10;" d="M 56.308594 194.757812 L 76.832031 207.226562 "/>
<path style="fill:none;stroke-width:1.2;stroke-linecap:butt;stroke-linejoin:miter;stroke:rgb(0%,0%,0%);stroke-opacity:1;stroke-miterlimit:10;" d="M 56.308594 194.757812 L 35.25 206.296875 "/>
<path style="fill:none;stroke-width:1.2;stroke-linecap:butt;stroke-linejoin:miter;stroke:rgb(0%,0%,0%);stroke-opacity:1;stroke-miterlimit:10;" d="M 76.832031 207.226562 L 97.890625 195.6875 "/>
<path style="fill:none;stroke-width:1.2;stroke-linecap:butt;stroke-linejoin:miter;stroke:rgb(0%,0%,0%);stroke-opacity:1;stroke-miterlimit:10;" d="M 76.222656 201.117188 L 93.070312 191.886719 "/>
</g>
</svg>

<svg xmlns="http://www.w3.org/2000/svg" xmlns:xlink="http://www.w3.org/1999/xlink" width="300pt" height="300pt" viewBox="0 0 300 300"><defs><symbol overflow="visible"><path d="M.453 1.594v-7.938h4.5v7.938zm.5-.5h3.5v-6.938h-3.5zm0 0"/></symbol><symbol overflow="visible" id="a"><path d="M3.547-5.953c-.65 0-1.164.242-1.547.72-.375.48-.563 1.13-.563 1.952 0 .835.188 1.49.563 1.967.383.48.898.72 1.547.72.644 0 1.156-.24 1.53-.72.376-.476.564-1.132.564-1.968 0-.822-.187-1.474-.562-1.954-.375-.477-.887-.72-1.53-.72zm0-.734c.914 0 1.648.312 2.203.937.55.617.828 1.438.828 2.47 0 1.042-.277 1.87-.828 2.483-.555.617-1.29.922-2.203.922-.93 0-1.668-.305-2.22-.922C.774-1.41.5-2.237.5-3.28c0-1.033.273-1.853.828-2.47.55-.625 1.29-.938 2.22-.938zm0 0"/></symbol><symbol overflow="visible" id="b"><path d="M.89-6.563H2.08l2.906 5.485v-5.484h.86V0H4.656L1.75-5.484V0H.89zm0 0"/></symbol><symbol overflow="visible" id="c"><path d="M.89-6.563h.876v2.688H5v-2.688h.89V0H5v-3.125H1.766V0H.89zm0 0"/></symbol></defs><g><path fill="#fff" d="M0 0h300v300H0z"/><path d="M141.473 170.2l-10.258-6.235" stroke-width="1.2" stroke="#f00" stroke-miterlimit="10" fill="none"/><path d="M131.215 163.965l-10.262-6.235" stroke-width="1.2" stroke="#000" stroke-miterlimit="10" fill="none"/><path d="M138.54 175.027l-10.26-6.234" stroke-width="1.2" stroke="#f00" stroke-miterlimit="10" fill="none"/><path d="M128.28 168.793l-10.26-6.234" stroke-width="1.2" stroke="#000" stroke-miterlimit="10" fill="none"/><path d="M136.008 167.113h8v11h-8zm0 0" fill="#fff"/><use xlink:href="#a" x="136.008" y="175.776" fill="#f00"/><path d="M119.484 160.145l.27-12.004" stroke-width="1.2" stroke="#000" stroke-miterlimit="10" fill="none"/><path d="M119.754 148.14l.27-12.003" stroke-width="1.2" stroke="#00f" stroke-miterlimit="10" fill="none"/><path d="M119.484 160.145l-21.058 11.54" stroke-width="1.2" stroke="#000" stroke-miterlimit="10" fill="none"/><path d="M120.023 136.137l-10.26-6.235" stroke-width="1.2" stroke="#00f" stroke-miterlimit="10" fill="none"/><path d="M109.762 129.902L99.5 123.668" stroke-width="1.2" stroke="#000" stroke-miterlimit="10" fill="none"/><path d="M120.023 136.137l10.528-5.77" stroke-width="1.2" stroke="#00f" stroke-miterlimit="10" fill="none"/><path d="M130.55 130.367l10.532-5.77" stroke-width="1.2" stroke="#000" stroke-miterlimit="10" fill="none"/><path d="M117.023 130.637h7v11h-7zm0 0" fill="#fff"/><use xlink:href="#b" x="117.023" y="139.3" fill="#00f"/><path d="M99.5 123.668l-21.06 11.54M141.082 124.598l10.262 6.234" stroke-width="1.2" stroke="#000" stroke-miterlimit="10" fill="none"/><path d="M151.344 130.832l10.258 6.234" stroke-width="1.2" stroke="#00f" stroke-miterlimit="10" fill="none"/><path d="M146.066 121.016l8.21 4.988" stroke-width="1.2" stroke="#000" stroke-miterlimit="10" fill="none"/><path d="M154.277 126.004l8.207 4.988" stroke-width="1.2" stroke="#00f" stroke-miterlimit="10" fill="none"/><path d="M141.617 100.594l-.535 24.004" stroke-width="1.2" stroke="#000" stroke-miterlimit="10" fill="none"/><path d="M161.602 137.066l10.53-5.77" stroke-width="1.2" stroke="#00f" stroke-miterlimit="10" fill="none"/><path d="M172.133 131.297l10.527-5.77" stroke-width="1.2" stroke="#000" stroke-miterlimit="10" fill="none"/><path d="M158.602 131.566h7v11h-7zm0 0" fill="#fff"/><use xlink:href="#b" x="158.602" y="140.229" fill="#00f"/><path d="M182.66 125.527l.27-12.004" stroke-width="1.2" stroke="#000" stroke-miterlimit="10" fill="none"/><path d="M182.93 113.523l.27-12" stroke-width="1.2" stroke="#00f" stroke-miterlimit="10" fill="none"/><path d="M177.066 123l.215-9.602" stroke-width="1.2" stroke="#000" stroke-miterlimit="10" fill="none"/><path d="M177.28 113.398l.216-9.6" stroke-width="1.2" stroke="#00f" stroke-miterlimit="10" fill="none"/><path d="M182.66 125.527l10.262 6.235" stroke-width="1.2" stroke="#000" stroke-miterlimit="10" fill="none"/><path d="M192.922 131.762l10.262 6.234M183.2 101.523l-10.262-6.234" stroke-width="1.2" stroke="#00f" stroke-miterlimit="10" fill="none"/><path d="M172.938 95.29l-10.262-6.235" stroke-width="1.2" stroke="#000" stroke-miterlimit="10" fill="none"/><path d="M180.2 96.023h7v11h-7zm0 0" fill="#fff"/><use xlink:href="#b" x="180.199" y="104.687" fill="#00f"/><path d="M162.676 89.055l-21.06 11.54M163.285 95.164l-16.847 9.23" stroke-width="1.2" stroke="#000" stroke-miterlimit="10" fill="none"/><path d="M202.648 162.004m.586-2.94l-1.043-.025m1.63-2.92l-2.082-.046m2.672-2.898l-3.13-.067m3.716-2.876l-4.168-.093m4.754-2.847l-5.21-.117m5.8-2.824l-6.258-.14m6.844-2.802l-7.297-.164m7.884-2.777l-8.34-.19m8.418-.19l-8.473-.188" stroke="#000" stroke-miterlimit="10" fill="none"/><path d="M196.184 132.496h14v11h-14zm0 0" fill="#fff"/><g fill="#00f"><use xlink:href="#b" x="196.184" y="141.159"/><use xlink:href="#c" x="203.161" y="141.159"/></g><path d="M202.648 162.004l-21.058 11.54M202.648 162.004l20.52 12.47M223.168 174.473l-.535 24.004M228.766 177l-.43 19.203M244.227 162.934l-21.06 11.54M222.633 198.477l20.523 12.468M243.156 210.945l21.06-11.54M242.547 204.836l16.844-9.23M264.215 199.406l.535-24.004M264.75 175.402l-20.523-12.468M259.766 178.984l-16.418-9.976M98.426 171.684l-20.52-12.47M93.44 175.266l-16.417-9.977M97.89 195.688l.536-24.004M77.906 159.215l-21.062 11.54M56.844 170.754l-20.52-12.47M56.844 170.754l-.535 24.004M62.44 173.28l-.428 19.204M56.31 194.758l20.522 12.47M56.31 194.758l-21.06 11.54M76.832 207.227l21.06-11.54M76.223 201.117l16.847-9.23" stroke-width="1.2" stroke="#000" stroke-miterlimit="10" fill="none"/></g></svg>
